icons/1_Primary/PayPal.svg

<svg width="1024" height="1024" fill="none" xmlns="http://www.w3.org/2000/svg"><g clip-path="url(#a)"><path d="M512 1024c282.77 0 512-229.23 512-512S794.77 0 512 0 0 229.23 0 512s229.23 512 512 512Z" fill="#728DBE"/><path d="m445.13 533.84 25-158.76a15.252 15.252 0 0 1 15.07-12.88H618c24.15 0 46.2 5.63 65 15.47C727.55 401 753.64 448.2 745.52 500a149.871 149.871 0 0 1-148 126.87h-46.85a15.25 15.25 0 0 0-15.06 12.88l-21 133a15.236 15.236 0 0 1-5.128 9.202 15.236 15.236 0 0 1-9.872 3.678h-79.72a12.4 12.4 0 0 1-12.26-14.32m47.17-398.69a30.622 30.622 0 0 1 30.39-26H618a157.615 157.615 0 0 1 64 13.27c-7.8-58.23-59.36-103.63-127.95-103.63H394.72a15.25 15.25 0 0 0-15.06 12.88l-62.49 396.34a12.381 12.381 0 0 0 12.23 14.33h77" fill="#fff"/></g><defs><clipPath id="a"><path fill="#fff" d="M0 0h1024v1024H0z"/></clipPath></defs></svg>

<svg width="1024" height="1024" viewBox="0 0 1024 1024" fill="none" xmlns="http://www.w3.org/2000/svg">
<g clip-path="url(#clip0_2_3102)">
<path d="M512 1024C794.77 1024 1024 794.77 1024 512C1024 229.23 794.77 0 512 0C229.23 0 0 229.23 0 512C0 794.77 229.23 1024 512 1024Z" fill="#728DBE"/>
<path d="M445.13 533.84L470.13 375.08C470.695 371.489 472.524 368.219 475.287 365.857C478.05 363.496 481.565 362.199 485.2 362.2H618C642.15 362.2 664.2 367.83 683 377.67C727.55 401 753.64 448.2 745.52 500C740.034 535.322 722.104 567.521 694.965 590.785C667.826 614.049 633.266 626.847 597.52 626.87H550.67C547.037 626.871 543.524 628.169 540.763 630.53C538.002 632.892 536.175 636.161 535.61 639.75L514.61 772.75C514.049 776.33 512.231 779.592 509.482 781.952C506.733 784.313 503.233 785.617 499.61 785.63H419.89C418.099 785.631 416.328 785.245 414.7 784.496C413.073 783.748 411.626 782.655 410.461 781.294C409.296 779.933 408.44 778.336 407.951 776.613C407.462 774.889 407.353 773.08 407.63 771.31M454.8 372.62C455.908 365.363 459.586 358.745 465.164 353.973C470.742 349.201 477.849 346.591 485.19 346.62H618C640.026 346.523 661.828 351.043 682 359.89C674.2 301.66 622.64 256.26 554.05 256.26H394.72C391.087 256.261 387.574 257.559 384.813 259.92C382.052 262.282 380.225 265.551 379.66 269.14L317.17 665.48C316.888 667.249 316.993 669.058 317.478 670.782C317.963 672.506 318.816 674.104 319.979 675.467C321.142 676.829 322.586 677.923 324.213 678.673C325.839 679.423 327.609 679.811 329.4 679.81H406.4" fill="white"/>
</g>
<defs>
<clipPath id="clip0_2_3102">
<rect width="1024" height="1024" fill="white"/>
</clipPath>
</defs>
</svg>
